!!!!SEGMENT: pl-wn--mus-iii-62-775-3_zelenski-wladyslaw--trzy-piesni-do-slow-adama-asnyka-siedzi-ptaszek-na-drzewie.krn
!!!cenid: 18xx:3778
!!!COM: Żeleński, Władysław
!!!COM-rismid: pe41024455
!!!CDT:
!!!CNT:
!!!OTL: Trzy pieśni do słów Adama Asnyka/Siedzi ptaszek na drzewie
!!!PDT:
!!!AGN:
!!!SMS-siglum: PL-Wn
!!!SMS-shelfmark: Mus.III.62.775/3
!!!SMS-shelfwork: W
!!!SMS-variant:
!!!SMS-altvar:
!!!NIFC-rismid:
!!!URL-scan: https://polona.pl/item/trzy-piesni-do-slow-adama-asnyka-3-siedzi-ptaszek-na-drzewie,NjkwMjYxMjY/0/#info:metadata
!!!ONB-nifc:
!!!key: B-
**kern	**kern	**dynam	**kern	**text	**dynam
*part2	*part2	*part2	*part1	*part1	*part1
*staff3	*staff2	*	*staff1	*staff1	*
*I"Fortepian.	*I"Fortepian.	*	*I"Śpiew.	*	*
*Ipiano	*Ipiano	*	*Ivox	*	*
*ICklav	*ICklav	*	*ICvox	*	*
*IGacmp	*IGacmp	*	*IGsolo	*	*
*clefF4	*clefG2	*	*clefG2	*	*
*k[b-e-]	*k[b-e-]	*	*k[b-e-]	*	*
*B-:	*B-:	*	*B-:	*	*
*M3/4	*M3/4	*	*M3/4	*	*
=1	=1	=1	=1	=1	=1
!	!LO:TX:b:i:t=legg.	!	!LO:TX:a:B:t=Allegretto alla Mazurka.	!	!
4BB-/	4r	.	2.r	.	.
4d 4B- 4F\	8r	.	.	.	.
.	(8f/L	.	.	.	.
4e- 4B- 4G\	8g/	.	.	.	.
.	8b-/J	.	.	.	.
=2	=2	=2	=2	=2	=2
4BB-/	4dd\)	.	2.r	.	.
4d 4B- 4F\	8r	.	.	.	.
.	(8f/L	.	.	.	.
4e- 4B- 4G\	8g/	.	.	.	.
.	8b-/J	.	.	.	.
=3	=3	=3	=3	=3	=3
4BB-/	4dd\)	.	2.r	.	.
4d 4B- 4F\	8r	.	.	.	.
.	8f/L	.	.	.	.
4e- 4B- 4G\	8cc/	.	.	.	.
.	8b-/J	.	.	.	.
=4	=4	=4	=4	=4	=4
4BB-/	[2.f/	.	2.r	.	.
4d 4B- 4F\	.	.	.	.	.
4d 4B- 4F\	.	.	.	.	.
=5	=5	=5	=5	=5	=5
!	!	!	!LO:TX:a:i:t=legg.	!	!
4BB-/	4f/]	.	8dd\	Sie-	.
.	.	.	8ff\	-dzi	.
4r	4f 4d 4B-/	.	4b-\	pta-	.
4r	4f 4e- 4A/	.	8cc\	-szek	.
.	.	.	8ee-\	na	.
!!LO:LB:g=original
=6	=6	=6	=6	=6	=6
4BB-/	4r	.	4dd\	drze-	.
4r	4f 4d 4B-/	.	4b-\	-wie	.
4r	4f 4d 4B-/	.	8r	.	.
.	.	.	8b-\	I	.
=7	=7	=7	=7	=7	=7
4BB-/	4r	.	8a/	lu-	.
.	.	.	8cc\	-dziom	.
4r	4e- 4B- 4G/	.	4b-\	się	.
4r	4g 4e- 4B-/	.	4g/	dzi-	.
=8	=8	=8	=8	=8	=8
4BB-/	4r	.	4b-\	-wu-	.
4r	4f 4d 4B-/	.	2f/	-je,	.
4r	4b- 4f 4d/	.	.	.	.
=9	=9	=9	=9	=9	=9
4BB-/	4r	.	8g/	Że	.
.	.	.	8b-\	naj-	.
4r	4a 4e- 4c/	.	4a/	-mędr-	.
4r	4g 4e- 4B-/	.	8g/	-szy	.
.	.	.	8ee-\	z nich	.
=10	=10	=10	=10	=10	=10
4BB-/	4r	.	4dd\	nie	.
4r	4f 4d 4B-/	.	[2ff\	wie,	.
4r	4f 4d 4B-/	.	.	.	.
!!LO:LB:g=original
=11	=11	=11	=11	=11	=11
4GG/	4r	.	4ff\]	.	.
!	!	!	!	!	!LO:HP:a
4r	4b- 4f 4d/	.	4b-\	Gdzie	<
4r	4b- 4f 4d/	.	4dd\	się	.
=12	=12	=12	=12	=12	=12
4C/	4r	.	8een\L	szczę-	.
.	.	.	8dd\J	.	.
4r	4b- 4en 4c/	.	4.cc\	-ście	.
4r	4g 4e 4B-/	.	.	.	[
.	.	.	8gg\	znaj-	.
=13	=13	=13	=13	=13	=13
4FF/	4f 4c 4A/	.	4ff\	-du-	.
[2c [2A [2F\	8r	.	[2f/	-je,	.
.	(8f/L	.	.	.	.
.	8a/	.	.	.	.
.	8dd/J	.	.	.	.
=14	=14	=14	=14	=14	=14
4c] 4A] 4F\]	4cc\)	.	4f/]	.	.
4c 4A 4F\	8r	.	4r	.	.
.	(8f/L	<	.	.	.
4d 4A 4F\	8a/	.	4r	.	.
.	8dd/J	.	.	.	.
=15	=15	=15	=15	=15	=15
4FF/	8cc\L	.	2.r	.	.
.	8f\	.	.	.	.
[2c [2A [2F\	8cc\	.	.	.	.
.	8ff\	.	.	.	.
.	8f\	.	.	.	.
.	8cc\J	.	.	.	.
=16	=16	=16	=16	=16	=16
!	!	!	!	!	!LO:HP:a
8c] 8A] 8F\]	8ff\L	.	[2.ff\	Bo	<
8r	8f\	.	.	.	.
4r	8cc\	.	.	.	.
.	8ff\	.	.	.	.
4r	8f\	.	.	.	.
.	8cc\J	.	.	.	.
!!LO:PB:g=original
=17	=17	=17	=17	=17	=17
4A-X 4D-X\	4ff\)	[	8ff\]	.	[
!	!	!	!LO:TX:a:i:t=poco affretando	!	!
.	.	.	8ff\	szu-	.
!	!LO:TX:b:i:t=poco affrettando	!	!	!	!
4A- 4D-\	4ff 4f\	.	4.ff\	-ka-	.
4A- 4D-\	4cc 4g-X/	.	.	.	.
.	.	.	8cc\	-ją	.
=18	=18	=18	=18	=18	=18
!	!	!	!	!	!LO:HP:a
4An 4D-X\	4ee- 4f/	>	4ee-\	do-	>
4B- 4D-\	4dd-X 4f/	.	4dd-X\	-ko-	.
4c 4D-\	4cc 4f/	]]	4cc\	-ła	]]
=19	=19	=19	=19	=19	=19
!	!	!	!	!	!LO:DY:a
4d-X 4D-X\	4b- 4g-X/	p	8b-\	Tam,	p
.	.	.	8b-\	gdzie	.
4d- 4D-\	4b- 4g-/	.	4b-\	nig-	.
4d- 4D-\	4b- 4g-/	.	8cc\	-dy	.
.	.	.	8dd-X\	nie	.
=20	=20	=20	=20	=20	=20
*^	*	*	*	*	*
(4.c/	[2.D-X\	4a-X 4g-X/	<	4ee-\	by-	.
.	.	4a- 4g-/	.	2a-X/	-wa,	.
8B-/	.	.	.	.	.	.
8A-X/L	.	4a- 4g-/	[[	.	.	.
8e-/J)	.	.	.	.	.	.
*v	*v	*	*	*	*	*
=21	=21	=21	=21	=21	=21
4d-X 4D-\]	4a-X 4f/	.	8dd-X\	Pot	.
.	.	.	8dd-\	się	.
4d- 4D-X\	4a- 4f/	.	4.dd-\	le-	.
4d- 4D-\	4an 4f/	.	.	.	.
.	.	.	8an/	-je	.
=22	=22	=22	=22	=22	=22
4d-X 4D-X\	4cc 4f/	.	4cc\	im	.
4d-\	4b- 4f/	.	4b-\	z czo-	.
4B-\	4g-X 4d/	.	4g-X/	-ła,	.
!!LO:LB:g=original
=23	=23	=23	=23	=23	=23
*	*^	*	*	*	*
(4A\	(4f/	8c\L	.	8f/	Cierń	.
.	.	8e-\J	.	8f/	im	.
4B-\)	4g-X/)	4d-X\	.	4g-X/	sto-	.
4B-\	4g-/	4d-\	.	8a-X/	-py	.
.	.	.	.	8b-\	roz-	.
=24	=24	=24	=24	=24	=24	=24
4B- 4F\	(8g-X/L	[2c\	.	4cc\	-ry-	.
.	8en/J	.	.	.	.	.
4A 4F\	4.f/)	.	.	[2f/	-wa.	.
4A 4F\	.	8c\]	<	.	.	.
.	(8c/	8r	.	.	.	.
*	*v	*v	*	*	*	*
=25	=25	=25	=25	=25	=25
4A 4F\	8f\L	.	4f/]	.	.
.	8cc\	.	.	.	.
4A 4F\	8f\	.	4r	.	.
.	8cc\	.	.	.	.
4A 4F\	8ff\	.	4r	.	.
.	8cc\J	.	.	.	.
=26	=26	=26	=26	=26	=26
!	!	!	!	!	!LO:HP:a
(2.A (2.E-\	8cc\L	.	[2.ff\	Trwo-	<
.	8ff\	.	.	.	.
.	8f\	.	.	.	.
.	8cc\	.	.	.	.
.	8ff\	.	.	.	.
.	8f\J	.	.	.	.
=27	=27	=27	=27	=27	=27
4A-X 4D-X\))	4ff\)	[	8ff\]	.	[
.	.	.	8ff\	-nią	.
4A- 4D-\	4ff 4f\	.	4.ff\	ży-	.
4A- 4D-\	4cc 4g-X/	.	.	.	.
.	.	.	8cc\	-cia	.
=28	=28	=28	=28	=28	=28
4An 4D-X\	4ee- 4f/	.	4ee-\	dzień	.
4B- 4D-\	4dd-X 4f/	.	4dd-X\	jas-	.
4c 4D-\	4cc 4f/	.	4cc\	-ny	.
!!LO:LB:g=original
=29	=29	=29	=29	=29	=29
!	!	!	!	!	!LO:DY:a
4d-X 4D-X\	4b- 4g-X/	p	8b-\	Na	p
.	.	.	8b-\	za-	.
4d- 4D-\	4b- 4g-/	.	4b-\	-bie-	.
4d- 4D-\	4b- 4g-/	.	8cc\	-gi	.
.	.	.	8dd-X\	i	.
=30	=30	=30	=30	=30	=30
4d-X 4D-X\	4b-- 4g-X/	.	4ee-\	ża-	.
4d- 4D-\	4b-- 4g-/	.	[2b--\	-le,	.
4d- 4D-\	4b-- 4g-/	.	.	.	.
=31	=31	=31	=31	=31	=31
4d-X 4D-X\	4b-- 4f-X/	.	4b--\]	.	.
(2d- (2D-\	8r	.	4r	.	.
.	(8B--/L	.	.	.	.
.	8f-/	.	4r	.	.
.	8b--/J	.	.	.	.
=32	=32	=32	=32	=32	=32
!	!LO:TX:b:i:t=meno mosso	!	!LO:TX:a:i:t=meno mosso	!	!
4c-X 4C-X\))	4e-/)	.	8b--\	Tyl-	.
.	.	.	8a-X/	-ko	.
4r	4b-- 4e-/	.	4g-X/	w pier-	.
4r	4b-- 4e-/	.	8b--\	-si	.
.	.	.	8dd-X\	swej	.
=33	=33	=33	=33	=33	=33
!	!	!	!LO:TX:a:i:t=espress.	!	!
4F-X\	4r	.	2cc\	włas-	.
4r	4a-X 4f-X 4c-X/	.	.	.	.
4r	4a- 4f- 4c-/	.	4ff-X\	-nej	.
=34	=34	=34	=34	=34	=34
4G-X\	4r	.	8ee-\	Nie	.
.	.	.	8dd-X\	szu-	.
4r	4b-- 4e- 4c-X/	.	4g-X/	-ka-	.
4r	4b-- 4e- 4c-/	.	8b--\	-ją	.
.	.	.	8dd-\	go	.
!!LO:LB:g=original
=35	=35	=35	=35	=35	=35
[2.A-X\	4r	.	2cc-X\	wca-	.
.	(8cc-XL 8f-X 8c-X/	<	.	.	.
.	8c-/	.	.	.	.
.	8f-/	.	[4f-X/	-le.	.
.	8cc-/J	.	.	.	.
=36	=36	=36	=36	=36	=36
!	!	!	!LO:TX:a:i:t=string.	!	!
4A-\]	8f-X\L	.	4f-/]	.	.
.	8cc-X\	.	.	.	.
4r	8ff-X\	.	4r	.	.
.	8f-\	.	.	.	.
4r	8cc-\	.	4r	.	.
.	8ff-\J	[	.	.	.
=37	=37	=37	=37	=37	=37
2.r	8.b-\L)	f >	2.r	.	.
.	16b-\Jk	.	.	.	.
.	4b-\	.	.	.	.
.	4b-\	]]	.	.	.
=38	=38	=38	=38	=38	=38
2.r	4b-\	p	2.r	.	.
.	4b-\	.	.	.	.
.	4b-\	.	.	.	.
=39	=39	=39	=39	=39	=39
!	!LO:TX:b:i:t=legg.	!	!LO:TX:a:i:t=legg.	!	!
4f 4d\	4b- 4a-X/	.	8b-\	W nie-	.
.	.	.	8b-\	-na-	.
4f 4d\	4b- 4a-/	.	4b-\	-wiś-	.
4f 4d\	4b- 4a-/	.	8b-\	-ci	.
.	.	.	8b-\	i	.
=40	=40	=40	=40	=40	=40
4e-\	4b- 4g-X/	.	4ee-\	kłót-	.
4e-\	4b- 4g-/	.	2b-\	-ni	.
4e-\	4b- 4g-/	.	.	.	.
!!LO:LB:g=original
=41	=41	=41	=41	=41	=41
4f 4d\	4b- 4a-X/	.	8b-\	Wy-	.
.	.	.	8b-\	-dzie-	.
4f 4d\	4b- 4a-/	.	4b-\	-ra-	.
4f 4d\	4b- 4a-/	.	8b-\	-ja	.
.	.	.	8b-\	coś	.
=42	=42	=42	=42	=42	=42
!	!LO:TX:b:i:t=riten.	!	!	!	!
4e-\	4b- 4g-X/	.	4ee-\	so-	.
4e-\	4b- 4g-/	.	4b-\	-bie,	.
4e- 4d-X\	4b- 4g-/	.	8b-\	Aż	.
.	.	.	8b-\	zmę-	.
=43	=43	=43	=43	=43	=43
!	!LO:TX:b:i:t=allargando sempre	!	!LO:TX:a:i:t=allargando sempre	!	!
4e- 4c\	4b- 4g-X/	.	2gg-X\	-cze-	.
4r	4b- 4g- 4e-/	.	.	.	.
(4C/	4b- 4g- 4e-/	.	8ff\	-ni	.
.	.	.	8ee-\	i	.
=44	=44	=44	=44	=44	=44
4E-\)	4r	.	4dd-X\	smu-	.
4r	4b- 4g-X 4c/	.	4cc\	-tni,	.
4F\	4b- 4f 4d-X/	.	8b-\	I-	.
.	.	.	8dd-\	-dą	.
=45	=45	=45	=45	=45	=45
4G-X\	4r	.	4cc\	prze-	.
4r	4b- 4e- 4c/	.	4b-\	-spać	.
4E-\	4b- 4g-X 4c/	.	4g-X/	się	.
!!LO:PB:g=original
=46	=46	=46	=46	=46	=46
4F\	4r	.	4g-X/	w gro-	.
4r	4a-X 4f 4c/	.	4f/	-bie.	.
4r	4g-X 4d 4B-/	.	8b-\	I-	.
.	.	.	8dd-X\	-dą	.
=47	=47	=47	=47	=47	=47
4FF/	4r	.	[2.cc\	prze-	.
4r	4f 4c 4An/	.	.	.	.
4r	4f 4c 4A/	.	.	.	.
=48	=48	=48	=48	=48	=48
4EE-/	4r	.	4cc\]	.	.
4r	4g-X 4c 4B-/	.	4b-\	-spać	.
4EEn/	4g- 4c 4B-/	.	4g-X/	się	.
=49	=49	=49	=49	=49	=49
4FF/	4r	.	4g-X/	w gro-	.
[2c [2A [2F\	8r	.	[2f/	-bie.	.
!	!LO:TX:b:i:t=più mosso	!	!	!	!
.	(8f/L	.	.	.	.
.	8a/	.	.	.	.
.	8dd/J	.	.	.	.
=50	=50	=50	=50	=50	=50
8c] 8A] 8F\]	4cc\)	.	4f/]	.	.
8r	.	.	.	.	.
4c 4A 4F\	8r	.	4r	.	.
.	(8f/L	.	.	.	.
4d 4A 4F\	8a/	.	4r	.	.
.	8dd/J	.	.	.	.
=51	=51	=51	=51	=51	=51
4FF/	8cc\L	<	2.r	.	.
.	8f\	.	.	.	.
[2c [2A [2F\	8cc\	.	.	.	.
.	8ff\	.	.	.	.
.	8f\	.	.	.	.
.	8cc\J	.	.	.	.
!!LO:LB:g=original
=52	=52	=52	=52	=52	=52
8c] 8A] 8F\]	8ff\L	.	2.r	.	.
8r	8f\	.	.	.	.
4r	8cc\	.	.	.	.
.	8ff\	.	.	.	.
4r	8f\	.	.	.	.
.	8cc\J	.	.	.	.
=53	=53	=53	=53	=53	=53
2.r	8ff\)	[	2.r	.	.
.	8r	.	.	.	.
.	(<8qgg/	>	.	.	.
.	[2ffTT\)	.	.	.	.
=54	=54	=54	=54	=54	=54
2.r	2.ffTTT\_	]]	2.r	.	.
=55	=55	=55	=55	=55	=55
!	!	!	!LO:TX:a:i:t=legg.	!	!
!	!LO:TX:b:i:t=legg.	!	!LO:TX:a:i:t=tempo	!	!
4BB-/	2.ffTTT\_	.	8dd\	A	.
.	.	.	8ff\	więc	.
4d 4B- 4F\	.	.	4b-\	sie-	.
4e- 4A 4F\	.	.	8cc\	-dząc	.
.	.	.	8ee-\	na	.
=56	=56	=56	=56	=56	=56
4BB-/	2.ffTTT\_	.	4dd\	drze-	.
4d 4B- 4F\	.	.	2b-\	-wie	.
4d 4B- 4F\	.	.	.	.	.
=57	=57	=57	=57	=57	=57
4BB-/	2.ffTTT\_	.	8a/	Pta-	.
.	.	.	8cc\	-szek	.
4e- 4B- 4G\	.	.	4b-\	dzi-	.
4e- 4B- 4G\	.	.	8a/	-wi	.
.	.	.	8g/	się	.
!!LO:LB:g=original
=58	=58	=58	=58	=58	=58
4BB-/	4.ffTTT\]	.	4b-\	bar-	.
4d 4B- 4F\	.	.	2f/	-dzo.	.
.	8dd'\L	.	.	.	.
4d 4B- 4F\	8b-'\	.	.	.	.
.	8dd'\J	.	.	.	.
=59	=59	=59	=59	=59	=59
4BB-/	8g'/L	.	8g/	Chciał-	.
.	8b-'/J	.	8b-\	-by	.
4r	4a 4e- 4c/	.	4a/	prze-	.
4r	4g 4e- 4B-/	.	8g/	-strzedz	.
.	.	.	8ee-\	ich	.
=60	=60	=60	=60	=60	=60
4BB-/	4r	.	4dd\	w śpie-	.
4r	4f 4d 4B-/	.	2ff\	-wie. . .	.
4r	4f 4d 4A-X/	.	.	.	.
=61	=61	=61	=61	=61	=61
!	!LO:TX:b:i:t=poco rit.	!	!LO:TX:a:i:t=poco rit.	!	!LO:HP:a
4C/	4r	.	8ee-\	Lecz	<
.	.	.	8dd\	prze-	.
4r	4e- 4B- 4G/	.	4cc\	-stro-	.
4r	4e- 4B- 4G-X/	.	8b-\	-gą	.
.	.	.	8g-X/	po-	[[
=62	=62	=62	=62	=62	=62
!	!LO:TX:b:i:t=a tempo	!	!	!	!
4FF/	4r	.	4dd\	-gar-	.
[2e- [2A [2F\	8r	.	[2cc\	-dzą.	.
.	(8f/L	.	.	.	.
.	8a/	.	.	.	.
.	8dd/J	.	.	.	.
!!LO:LB:g=original
=63	=63	=63	=63	=63	=63
4e-] 4A] 4F\]	4cc\)	.	4cc\]	.	.
4e- 4A 4F\	8r	.	4r	.	.
.	(8f\L	.	.	.	.
4e- 4A 4F\	8a\	.	4r	.	.
.	8gg\J	.	.	.	.
=64	=64	=64	=64	=64	=64
4BB- 4BBB-/	4ff\)	.	4r	.	.
!	!	!	!LO:TX:a:i:t=espress.e riten.	!	!
4d 4B- 4F\	8r	.	(2b-\	Chciał-	.
.	(>8dd/L	.	.	.	.
4d 4B- 4F\	8b-/	.	.	.	.
.	8f#X/J	.	.	.	.
=65	=65	=65	=65	=65	=65
!	!LO:TX:b:i:t=riten.	!	!	!	!
4BB-/	4a/)	.	4b-\	.	.
4r	4g 4d 4B-/	.	4dd\)	.	.
4BB- 4BBBn/	4f 4d 4A-X/	.	4ff\	-by	.
=66	=66	=66	=66	=66	=66
4C 4CC/	4r	.	8ee-\L	prze-	.
.	.	.	8dd\J	.	.
4r	4e- 4c 4G/	.	4.cc\	-strzedz	.
4r	4e- 4c 4G/	.	.	.	.
.	.	.	8ee-\	ich	.
=67	=67	=67	=67	=67	=67
4E- 4EE-/	4r	.	4.aa\	w śpie-	.
4r	4g 4c 4B-/	.	.	.	.
.	.	.	8gg\	-wie,	.
4r	4g 4c 4B-/	.	8ff\	Lecz	.
.	.	.	8ee-\	prze-	.
=68	=68	=68	=68	=68	=68
!	!LO:TX:b:i:t=a tempo	!	!LO:TX:a:i:t=a tempo	!	!
4F 4FF/	4r	.	(8dd\L	-stro-	.
.	.	.	8ff\J	.	.
4r	4g 4e- 4B-/	.	[2ee-\)	.	.
4r	4g 4e- 4B-/	.	.	.	.
!!LO:LB:g=original
=69	=69	=69	=69	=69	=69
4F 4FF/	4r	.	4ee-\]	.	.
4r	4g 4e- 4B-/	.	4.g/	-gą	.
4FF 4FFF/	4f 4e- 4A/	.	.	.	.
.	.	.	8a/	po-	.
=70	=70	=70	=70	=70	=70
4BB- 4BBB-/	4f 4d 4B-/	.	4dd\	-gar-	.
[2d [2B- [2F\	8r	.	[2b-\	-dzą.	.
.	(8b-\L	.	.	.	.
.	8dd\	.	.	.	.
.	8gg\J	.	.	.	.
=71	=71	=71	=71	=71	=71
4d] 4B-] 4F\]	8dd\L	.	4b-\]	.	.
.	8ff\J	.	.	.	.
4e- 4B- 4F\	4.ee-\)	.	4r	.	.
4e- 4A 4F\	.	.	4r	.	.
.	(8g/	.	.	.	.
=72	=72	=72	=72	=72	=72
!	!LO:TX:b:i:t=poco più lento	!	!	!	!
4BB-/	4dd\)	.	2.r	.	.
4d 4B- 4F\	8r	.	.	.	.
!	!	!LO:HP:a	!	!	!
.	(8B-/L	<	.	.	.
4r	8d/	.	.	.	.
.	8g/J	.	.	.	.
=73	=73	=73	=73	=73	=73
*^	*	*	*	*	*
4r	2ryy	8d/L	.	2.r	.	.
.	.	8f/J	.	.	.	.
4r	.	4.e-/)	.	.	.	.
4G 4E-/	4BB- 4EE-\	.	[	.	.	.
!	!	!	!LO:HP:a	!	!	!
.	.	(8B-/	>	.	.	.
=74	=74	=74	=74	=74	=74	=74
*	*	*	*^	*	*	*
4r	4r	[2.d/)	.	.	2.r	.	.
[2B- [<2F/	[2BB- [2BBB-\	.	.	p	.	.	.
*	*	*	*v	*v	*	*	*
=75	=75	=75	=75	=75	=75	=75
4B-] 4F/]	4BB-] 4BBB-\]	2.d/]	]]	2.r	.	.
2B- 2F/	2BB- 2BBB-\	.	pp	.	.	.
*v	*v	*	*	*	*	*
==	==	==	==	==	==
*-	*-	*-	*-	*-	*-
!!!system-decoration: s1{(s2,s3)}
!!!RDF**kern: > = above
!!!RDF**kern: < = below
!!!ENC: Filip Voros
!!!END: 2022-03-15
!!!AIN: 1 piano 1 vox
!!!ENC: Marta Lawrence
!!!END: 2022-03-20
